X: 1
T: Mary and Lloyd Augustus
C: Bobby Frew
R: strathspey
Z: 2010 John Chambers <jc:trillian.mit.edu>
B: RSCDS Graded 2 #2
M: C
L: 1/8
K: D
A,2 \
| "D"D2 D>E F>E D>E | "D"F<A d>e f>e d>c \
| "G"B>c d>B "D"A<d F>D | "Em"(3EFG (3FED "A7"(3CDE (3A,B,C ||
y3 \
| "D"D2 D>E F>E D>E | "D"F<A d>e "Bm"f>e d>c \
| "G"B>c d>B "D"A<d F>D | "Em"(3EFG "A7"F>E "D"D2 |]
A2 \
| "D"f2 f>e d>A B<d | "G"B>c d>B "D"B>A F<A \
| "F#m"f2 f>e "Bm"d>B A>B | "Em"d>B A<F "A7"E2 ||
A,2 \
| "D"D2 D>E "/c#"F>A d>e | "Bm"f2 e>d "G"B<d "B7/d#"A>F \
| "Em"G>A B>G "D"A<d "Bm"F>D | "Em"(3EFG "A7"F>E "D"D2 |]
%%center Book46/MaryAndLloydAugustus_D-JC.abc

%%sep 1 1 500
%%sep 1 1 500

